src/img/pricing/massage-icon.svg

<svg width="21" height="19" viewBox="0 0 21 19" fill="none" xmlns="http://www.w3.org/2000/svg">
<g id="Layer_1" clip-path="url(#clip0_556_593)">
<path id="Vector" d="M18.2535 13.3872C18.2535 13.9241 18.2609 14.4471 18.2516 14.971C18.2414 15.5958 17.8666 16.0364 17.2714 16.1317C16.9308 16.1863 16.6336 16.0752 16.368 15.8661C15.8034 15.4236 15.2397 14.9812 14.6741 14.5406C13.6763 13.7649 12.5387 13.3919 11.2808 13.3872C9.53783 13.3808 7.79488 13.39 6.05193 13.3835C4.69034 13.3789 3.61107 12.532 3.31487 11.2416C3.26859 11.0408 3.2473 10.8297 3.2473 10.6233C3.24267 8.00105 3.24175 5.37969 3.24545 2.7574C3.24823 1.21254 4.46172 0.00182577 6.00843 0.000900151C9.99508 -0.000951092 13.9817 -0.000951092 17.9693 0.000900151C19.5271 0.000900151 20.736 1.21346 20.7378 2.77684C20.7406 5.35284 20.7388 7.92792 20.7378 10.5039C20.7378 12.0155 19.8835 13.0568 18.3988 13.3558C18.3618 13.3632 18.3238 13.3715 18.2535 13.3872ZM11.9768 5.88415C12.8553 5.88415 13.7337 5.88415 14.6121 5.88415C15.1665 5.88415 15.7219 5.88971 16.2764 5.88045C16.7271 5.87212 17.0437 5.51113 17.003 5.07516C16.9641 4.66974 16.642 4.40501 16.1792 4.40501C13.3893 4.40501 10.5995 4.40501 7.80969 4.40501C7.756 4.40501 7.70139 4.40316 7.64771 4.40871C7.20156 4.45962 6.90628 4.85949 6.98959 5.29916C7.05531 5.64719 7.36076 5.8823 7.76896 5.88323C9.17128 5.886 10.5745 5.88415 11.9768 5.88415ZM9.86179 8.99239C10.5782 8.99239 11.2956 9.00257 12.012 8.98869C12.4359 8.98036 12.7257 8.66935 12.7303 8.2667C12.7349 7.8585 12.4322 7.5262 12.0065 7.5225C10.5727 7.51232 9.13888 7.51695 7.70602 7.51972C7.44962 7.51972 7.24413 7.63543 7.10066 7.84739C6.77392 8.33057 7.09233 8.96925 7.68936 8.98683C8.41319 9.00905 9.13796 8.99239 9.86272 8.99239H9.86179Z" fill="#E95229"/>
<path id="Vector_2" d="M13.22 15.3533C12.7618 16.1067 12.1333 16.5131 11.2854 16.5214C10.0127 16.5344 8.73995 16.5344 7.46722 16.5214C6.43145 16.5121 5.51138 16.8083 4.70702 17.4655C4.35528 17.7534 3.99059 18.0265 3.63422 18.3097C3.27323 18.5966 2.88354 18.7059 2.45313 18.4902C2.01901 18.2727 1.84777 17.9006 1.85795 17.4276C1.86443 17.1277 1.85888 16.8269 1.85888 16.514C1.7802 16.4899 1.70985 16.4668 1.63858 16.4464C0.665754 16.166 0.00763638 15.3162 0.00485951 14.3073C-0.00161984 12.3172 -0.00161984 10.3271 0.00485951 8.33705C0.00763638 7.38551 0.616696 6.558 1.51733 6.24792C1.5886 6.22385 1.66265 6.20812 1.76447 6.18127C1.76447 6.2905 1.76447 6.37288 1.76447 6.45526C1.76447 7.82055 1.76354 9.18584 1.76447 10.5511C1.76632 12.7856 3.26675 14.5183 5.48084 14.8358C5.70114 14.8673 5.92699 14.8645 6.15006 14.8645C7.83932 14.8664 9.52858 14.8655 11.2178 14.8655C11.7945 14.8655 12.3536 14.9589 12.8849 15.1894C12.9895 15.2348 13.0894 15.2894 13.219 15.3523L13.22 15.3533Z" fill="#E95229"/>
</g>
<defs>
<clipPath id="clip0_556_593">
<rect width="20.7386" height="18.605" fill="white"/>
</clipPath>
</defs>
</svg>

<svg width="21" height="19" fill="none" xmlns="http://www.w3.org/2000/svg"><g id="Layer_1" clip-path="url(#clip0_556_593)" fill="#E95229"><path id="Vector" d="M18.253 13.387c0 .537.008 1.06-.001 1.584-.01.625-.385 1.065-.98 1.16-.341.055-.638-.056-.904-.265-.565-.442-1.128-.885-1.694-1.325-.998-.776-2.135-1.15-3.393-1.154-1.743-.006-3.486.003-5.23-.004-1.36-.004-2.44-.851-2.736-2.141a2.775 2.775 0 01-.068-.619c-.004-2.622-.005-5.243-.002-7.866A2.735 2.735 0 016.008.001c3.987-.002 7.974-.002 11.961 0 1.558 0 2.767 1.212 2.769 2.776.003 2.576 0 5.15 0 7.727 0 1.511-.854 2.553-2.34 2.852a6.624 6.624 0 00-.145.031zm-6.276-7.503h2.635c.554 0 1.11.006 1.664-.004a.724.724 0 00.727-.805c-.039-.405-.361-.67-.824-.67H7.81c-.053 0-.108-.002-.161.004a.745.745 0 00-.658.89c.065.348.37.583.779.584 1.402.003 2.806.001 4.208.001zM9.862 8.992c.716 0 1.434.01 2.15-.003a.709.709 0 00.718-.722.72.72 0 00-.723-.744c-1.434-.01-2.868-.006-4.301-.003a.703.703 0 00-.605.327.724.724 0 00.588 1.14c.724.022 1.449.005 2.174.005h-.001z"/><path id="Vector_2" d="M13.22 15.353c-.458.754-1.087 1.16-1.935 1.168-1.272.013-2.545.013-3.818 0-1.036-.009-1.956.287-2.76.944-.352.288-.716.561-1.073.845-.36.287-.75.396-1.18.18-.435-.217-.606-.59-.596-1.062.006-.3 0-.601 0-.914-.078-.024-.148-.047-.22-.068-.972-.28-1.63-1.13-1.633-2.139-.007-1.99-.007-3.98 0-5.97a2.216 2.216 0 011.512-2.09c.072-.023.146-.039.247-.066v4.37c.002 2.235 1.503 3.967 3.717 4.285.22.031.446.028.67.028 1.688.002 3.378.002 5.067.002.576 0 1.136.093 1.667.323.104.046.204.1.334.163l.001.001z"/></g><defs><clipPath id="clip0_556_593"><path fill="#fff" d="M0 0h20.739v18.605H0z"/></clipPath></defs></svg>
